X:1
T:Title
%%score ( 1 2 ) ( 3 4 )
L:1/8
Q:1/4=68
M:6/8
K:Ab
V:1 treble nm="Strings 1, Soprano"
V:2 treble 
V:3 bass nm="Strings 1, Bass"
V:4 bass 
V:1
 [Ec][Fd][Ec] [DB]2 [Ec] | [CA]3 [CE]3 | [EB][EB][EB] [Ed][Ec][EB] | [Ec]6 | %4
w: 1.~Where~ art~ thou,~ wan d'ring~|sin ner?~|What~ is~ thy~ por tion~ to|night?~|
 [Ec][Fd][Ec] [DB][CA][DF] | [CE]3 [EA]2 [FB] | [Ec][Ed][Ec] [EB][Ec][Q:1/4=68][DB][Q:1/4=12] | %7
w: Bound~ in~ the~ fet ters~ of~|Sa tan,~ Oh,~|will~ you~ re turn~ to~ the~|
[M:4/4] A3 A- A[Q:1/4=80][Ec]- [Ec]/[Ec]/[Ec]/[Ae]/- | [Ae]4- [Ae][Ec]- [Ec]/[CA]/[DA]/[DF]/- | %9
w: light?~ * * * * * * *||
 [DF]4- [DF][FA]- [FA]/[DF]/[DF]/[CE]/- | [CE]3 [CE]- [CE]2 [B,D][A,C]- | %11
w: ||
 [A,C]4- [A,C][Ec]- [Ec]/[Ec]/[Ec]/[Ae]/- | [Ae]4- [Ae][Ec]- [Ec]/[CA]/[DA]/[DF]/- | %13
w: ||
 [DF]4- [DF][Fd]-[Q:1/4=12] [Fd]/[Q:1/4=80][DF]/[CE][Q:1/4=79][Q:1/4=78] | %14
w: |
 [EA]3 [Ec]- [Ec]2 [DB][CA]-[Q:1/4=76][Q:1/4=75][Q:1/4=74][Q:1/4=73][Q:1/4=72][Q:1/4=71][Q:1/4=69][Q:1/4=68][Q:1/4=67][Q:1/4=66][Q:1/4=65][Q:1/4=64][Q:1/4=62][Q:1/4=61][Q:1/4=60] | %15
w: |
 [CA]4- [CA] .A3 |] %16
w: |
V:2
 x6 | x6 | x6 | x6 | x6 | x6 | x6 |[M:4/4] C6 z2 | x8 | x8 | x8 | x8 | x8 | x8 | x8 | x8 |] %16
V:3
 [A,,A,][A,,A,][A,,A,] [A,,A,]2 [A,,A,] | [A,,E,]3 [A,,A,]3 | %2
 [E,G,][E,G,][E,G,] [E,B,][E,A,][E,G,] | A,6 | [A,,A,][A,,A,][A,,A,] [A,,A,][A,,A,][A,,A,] | %5
 [A,,A,]3 [C,A,]2 [D,A,] | [E,A,][E,B,][E,A,] [E,G,][E,A,]E, |[M:4/4] A,,4 z4[K:treble] | %8
 z2 z[K:bass] .A, z4 | z2 z A,- A, z z2 | z8 | z8[K:treble] | z2 z[K:bass] .A, z4 | %13
 z2 z A,- A, z z2 | [E,C]3 [E,A,]- [E,A,]2 [E,G,][A,,A,]- | [A,,A,]4- [A,,A,] .A,,3 |] %16
V:4
 x6 | x6 | x6 | x6 | x6 | x6 | x6 |[M:4/4] E,3- [A,,E,]- [A,,E,]A,- A,/A,/A,/[K:treble]C/- | %8
 C[A,C]- [A,C]/[A,C]/[K:bass]C/-[A,C]/- [A,C]A,- A,/E,/F,/A,/- | %9
 A,[D,A,]- [D,A,]/[D,A,]/D,/D,/- D,[D,A,]- [D,A,]/[D,A,]/[A,,A,]/[A,,A,]/- | %10
 [A,,A,]3 [A,,A,]- [A,,A,]2 [A,,E,][A,,E,]- | [A,,E,]4- [A,,E,]A,- A,/A,/A,/[K:treble]C/- | %12
 C[A,C]- [A,C]/[A,C]/[K:bass]C/-[A,C]/- [A,C]A,- A,/E,/F,/A,/- | %13
 A,[D,A,]- [D,A,]/[D,A,]/D,/D,/- D,[D,A,]- [D,A,]/[D,A,]/[E,A,] | x8 | x8 |] %16

